X: 68
T:Soldiers Joy,The. JMP.068
M:C|
L:1/8
Q:180
C:"73"
S:John Miller MS. Perth, 1799.(for the fife)
R:Hornpipe
O:Scotland
A:Perth
H:1799
Z:vmp.C.  Graebe
K:D major
"Key given as G in MS"(FG) | AFDF AFDF | A2 d2d2 (cB) |
AFDF AFDF | G2E2E2 (FG)  |!
AFDF AFDF | A2 d2d2 fg | afdf gece | d2d2d2 :|!
|:g2 | fefg fagf | edcd efge | fefg fagf | edcB A2 g2 |!
fefg fagf | edcd efge | afdf gece | d2d2d2 :|]
